svg/quartz.svg

<?xml version="1.0" encoding="UTF-8" standalone="no"?>
<!-- Created with Inkscape (http://www.inkscape.org/) -->

<svg
   width="32"
   height="32"
   viewBox="0 0 8.4666666 8.4666668"
   version="1.1"
   id="svg5"
   inkscape:version="1.1.2 (b8e25be8, 2022-02-05)"
   sodipodi:docname="quartz.svg"
   xmlns:inkscape="http://www.inkscape.org/namespaces/inkscape"
   xmlns:sodipodi="http://sodipodi.sourceforge.net/DTD/sodipodi-0.dtd"
   xmlns="http://www.w3.org/2000/svg"
   xmlns:svg="http://www.w3.org/2000/svg"
   xmlns:rdf="http://www.w3.org/1999/02/22-rdf-syntax-ns#"
   xmlns:cc="http://creativecommons.org/ns#">
  <sodipodi:namedview
     id="namedview7"
     pagecolor="#ffffff"
     bordercolor="#111111"
     borderopacity="1"
     inkscape:pageshadow="0"
     inkscape:pageopacity="0"
     inkscape:pagecheckerboard="1"
     inkscape:document-units="mm"
     showgrid="true"
     width="32mm"
     units="px"
     objecttolerance="10000"
     guidetolerance="10000"
     inkscape:snap-perpendicular="true"
     inkscape:snap-tangential="true"
     inkscape:zoom="34.90625"
     inkscape:cx="16"
     inkscape:cy="22.87556"
     inkscape:window-width="2560"
     inkscape:window-height="1301"
     inkscape:window-x="0"
     inkscape:window-y="25"
     inkscape:window-maximized="0"
     inkscape:current-layer="layer1"
     gridtolerance="10000">
    <inkscape:grid
       type="xygrid"
       id="grid9"
       units="px"
       empspacing="2" />
  </sodipodi:namedview>
  <defs
     id="defs2" />
  <g
     inkscape:label="Layer 1"
     inkscape:groupmode="layer"
     id="layer1">
    <path
       id="path9888"
       style="fill:#000000;fill-opacity:1;stroke:none;stroke-width:0.999999"
       d="m 7,10 c -2.2091388,0 -4,1.567003 -4,3.5 0,1.921034 1.7687151,3.48077 3.9589844,3.5 0.01364,1.2e-4 0.027344,0 0.041016,0 1.0856805,0.01634 1.9589844,0.681827 1.9589844,1.5 0,0.828427 -0.8954305,1.5 -2,1.5 C 6.1146009,19.9973 5.3634878,19.597077 5.0820316,19 H 3 c 0.2840576,1.722007 1.9705817,3.000005 3.9589844,3 2.2091387,0 3.9999996,-1.567003 3.9999996,-3.5 C 10.958984,16.578966 9.1902693,15.01923 7,15 6.986328,15 6.972591,15.000205 6.9589844,15 5.8733039,14.983659 5,14.318173 5,13.5 5,12.671573 5.8954304,12 7,12 c 0.8443839,0.0027 1.6775286,0.402923 1.9589844,1 H 10.958984 C 10.674927,11.277993 8.9884026,9.9999951 7,10 Z"
       transform="scale(0.26458333)" />
    <rect
       style="fill:#000000;fill-opacity:1;stroke:none;stroke-width:0.247495"
       id="rect10419"
       width="0.52916664"
       height="1.8520832"
       x="3.175"
       y="3.96875" />
    <circle
       style="fill:#000000;fill-opacity:1;stroke:none;stroke-width:0.264583"
       id="path10443"
       cx="3.4395833"
       cy="3.175"
       r="0.26458332" />
    <path
       id="path10547"
       style="fill:#000000;fill-opacity:1;stroke:none;stroke-width:0.264583"
       d="m 5.0270833,2.6458333 a 1.0583333,1.5875 0 0 0 -1.0583333,1.5875 1.0583333,1.5875 0 0 0 1.0583333,1.5875 1.0583333,1.5875 0 0 0 1.0583333,-1.5875 1.0583333,1.5875 0 0 0 -1.0583333,-1.5875 z m 0,0.5291667 A 0.52916663,1.0583333 0 0 1 5.55625,4.2333333 0.52916663,1.0583333 0 0 1 5.0270833,5.2916666 0.52916663,1.0583333 0 0 1 4.4979167,4.2333333 0.52916663,1.0583333 0 0 1 5.0270833,3.175 Z" />
    <path
       id="path10943"
       style="fill:#000000;fill-opacity:1;stroke:none;stroke-width:0.264583"
       d="m 6.3499999,3.7041666 10e-8,0.5291667 0.5291666,-1e-7 c 0.1461254,0 0.2645833,0.118458 0.2645833,0.2645834 0,0.1461253 -0.118458,0.2645833 -0.2645833,0.2645833 -0.438376,0 -0.79375,0.355374 -0.79375,0.79375 v 0.79375 H 6.6145832 7.6729166 V 5.8208332 H 6.6145832 V 5.5562499 c 0,-0.1461254 0.118458,-0.2645833 0.2645834,-0.2645833 0.438376,0 0.79375,-0.355374 0.79375,-0.79375 0,-0.438376 -0.355374,-0.79375 -0.79375,-0.79375 z"
       sodipodi:nodetypes="ccsssscccccssssc" />
  </g>
  <metadata
     id="metadata33">
    <rdf:RDF>
      <cc:Work
         rdf:about="">
        <cc:license
           rdf:resource="http://creativecommons.org/licenses/by-sa/4.0/" />
      </cc:Work>
      <cc:License
         rdf:about="http://creativecommons.org/licenses/by-sa/4.0/">
        <cc:permits
           rdf:resource="http://creativecommons.org/ns#Reproduction" />
        <cc:permits
           rdf:resource="http://creativecommons.org/ns#Distribution" />
        <cc:requires
           rdf:resource="http://creativecommons.org/ns#Notice" />
        <cc:requires
           rdf:resource="http://creativecommons.org/ns#Attribution" />
        <cc:permits
           rdf:resource="http://creativecommons.org/ns#DerivativeWorks" />
        <cc:requires
           rdf:resource="http://creativecommons.org/ns#ShareAlike" />
      </cc:License>
    </rdf:RDF>
  </metadata>
</svg>

<svg width="32" height="32" viewBox="0 0 8.467 8.467" xmlns="http://www.w3.org/2000/svg"><path style="fill:#000;fill-opacity:1;stroke:none;stroke-width:.999999" d="M7 10c-2.21 0-4 1.567-4 3.5 0 1.921 1.769 3.48 3.959 3.5H7c1.086.016 1.959.682 1.959 1.5 0 .828-.895 1.5-2 1.5-.844-.003-1.596-.403-1.877-1H3c.284 1.722 1.97 3 3.959 3 2.21 0 4-1.567 4-3.5 0-1.921-1.769-3.48-3.959-3.5h-.041C5.873 14.984 5 14.318 5 13.5c0-.828.895-1.5 2-1.5.844.003 1.678.403 1.959 1h2c-.284-1.722-1.97-3-3.959-3Z" transform="scale(.26458)"/><path style="fill:#000;fill-opacity:1;stroke:none;stroke-width:.247495" d="M3.175 3.969h.529v1.852h-.529z"/><circle style="fill:#000;fill-opacity:1;stroke:none;stroke-width:.264583" cx="3.44" cy="3.175" r=".265"/><path style="fill:#000;fill-opacity:1;stroke:none;stroke-width:.264583" d="M5.027 2.646A1.058 1.587 0 0 0 3.97 4.233a1.058 1.587 0 0 0 1.058 1.588 1.058 1.587 0 0 0 1.058-1.588 1.058 1.587 0 0 0-1.058-1.587zm0 .529a.53 1.058 0 0 1 .53 1.058.53 1.058 0 0 1-.53 1.059.53 1.058 0 0 1-.53-1.059.53 1.058 0 0 1 .53-1.058ZM6.35 3.704v.53h.53a.265.265 0 1 1 0 .528.794.794 0 0 0-.795.794v.794h1.588v-.53H6.615v-.264c0-.146.118-.264.264-.264a.794.794 0 0 0 0-1.588z"/></svg>
